public/img/common/icon-wechat.svg

<svg fill="none" height="42" viewBox="0 0 42 42" width="42" xmlns="http://www.w3.org/2000/svg"><rect fill="#fff" height="41" rx="10" width="41" x=".832031" y=".5"/><g fill="#003"><path d="m32.8118 30.1981c1.8295-1.3523 3.0227-3.341 3.0227-5.5682 0-4.0569-3.9773-7.3183-8.8296-7.3183s-8.75 3.2614-8.75 7.3183c0 4.0568 3.8977 7.3182 8.75 7.3182 1.0341 0 1.9887-.1591 2.8637-.3978.3181-.0795.6363 0 .7159.0796l1.9886 1.1136c.2387.1591.4773 0 .3977-.3182l-.4772-1.75c0-.2386.1591-.3977.3182-.4772zm-8.7501-6.7614c-.1766.0468-.3616.0523-.5408.0163-.1791-.036-.3476-.1127-.4924-.2242-.1448-.1114-.2621-.2546-.3428-.4186-.0807-.1639-.1227-.3442-.1227-.5269 0-.1828.042-.3631.1227-.527.0807-.164.198-.3072.3428-.4186.1448-.1115.3133-.1882.4924-.2242.1792-.036.3642-.0304.5408.0163.2545.0674.4795.2171.6401.4257.1605.2086.2476.4645.2476.7278 0 .2632-.0871.5191-.2476.7277-.1606.2086-.3856.3583-.6401.4257zm5.8864 0c-.1766.0468-.3617.0523-.5408.0163s-.3476-.1127-.4924-.2242c-.1448-.1114-.2621-.2546-.3428-.4186-.0807-.1639-.1227-.3442-.1227-.5269 0-.1828.042-.3631.1227-.527.0807-.164.198-.3072.3428-.4186.1448-.1115.3133-.1882.4924-.2242s.3642-.0304.5408.0163c.2545.0674.4795.2171.6401.4257.1605.2086.2476.4645.2476.7278 0 .2632-.0871.5191-.2476.7277-.1606.2086-.3856.3583-.6401.4257z"/><path d="m17.1397 9.19897c-5.8069 0-10.50005 3.97733-10.50005 8.82963 0 2.625 1.35228 5.0113 3.57955 6.6022.2386.1591.3977.3978.3182.7955l-.55683 1.9091c-.07955.3977.23863.5568.47723.4773l2.3864-1.3523c.2387-.1591.5568-.2386.875-.1591 2.0682.6364 3.8182.4773 4.0569.4773-1.9091-6.6819 4.6931-10.5001 9.7841-10.1819-.7955-4.1363-5.1705-7.39773-10.4205-7.39773zm-3.5 7.39773c-.2105.0507-.4298.053-.6413.0067-.2116-.0463-.4098-.14-.5799-.274s-.3076-.3048-.4021-.4997c-.0946-.1948-.1437-.4085-.1437-.625 0-.2166.0491-.4303.1437-.6251.0945-.1948.232-.3656.4021-.4996s.3683-.2277.5799-.274c.2115-.0463.4308-.0441.6413.0066.3125.0753.5906.2535.7896.506.1989.2525.3071.5646.3071.8861 0 .3214-.1082.6335-.3071.8861-.199.2525-.4771.4307-.7896.5059zm7.0795 0c-.2105.0507-.4298.053-.6413.0067s-.4098-.14-.5799-.274-.3075-.3048-.4021-.4997c-.0945-.1948-.1436-.4085-.1436-.625 0-.2166.0491-.4303.1436-.6251.0946-.1948.232-.3656.4021-.4996s.3684-.2277.5799-.274.4308-.0441.6413.0066c.3126.0753.5907.2535.7896.506.199.2525.3071.5646.3071.8861 0 .3214-.1081.6335-.3071.8861-.1989.2525-.477.4307-.7896.5059z"/></g></svg>

<svg width="42" height="42" viewBox="0 0 42 42" fill="none" xmlns="http://www.w3.org/2000/svg">
<rect x="0.832031" y="0.5" width="41" height="41" rx="10" fill="white"/>
<path d="M32.8118 30.1981C34.6413 28.8458 35.8345 26.8571 35.8345 24.6299C35.8345 20.573 31.8572 17.3116 27.0049 17.3116C22.1526 17.3116 18.2549 20.573 18.2549 24.6299C18.2549 28.6867 22.1526 31.9481 27.0049 31.9481C28.039 31.9481 28.9936 31.789 29.8686 31.5503C30.1867 31.4708 30.5049 31.5503 30.5845 31.6299L32.5731 32.7435C32.8118 32.9026 33.0504 32.7435 32.9708 32.4253L32.4936 30.6753C32.4936 30.4367 32.6527 30.2776 32.8118 30.1981ZM24.0617 23.4367C23.8851 23.4835 23.7001 23.489 23.5209 23.453C23.3418 23.417 23.1733 23.3403 23.0285 23.2288C22.8837 23.1174 22.7664 22.9742 22.6857 22.8102C22.605 22.6463 22.563 22.466 22.563 22.2833C22.563 22.1005 22.605 21.9202 22.6857 21.7563C22.7664 21.5923 22.8837 21.4491 23.0285 21.3377C23.1733 21.2262 23.3418 21.1495 23.5209 21.1135C23.7001 21.0775 23.8851 21.0831 24.0617 21.1298C24.3162 21.1972 24.5412 21.3469 24.7018 21.5555C24.8623 21.7641 24.9494 22.02 24.9494 22.2833C24.9494 22.5465 24.8623 22.8024 24.7018 23.011C24.5412 23.2196 24.3162 23.3693 24.0617 23.4367ZM29.9481 23.4367C29.7715 23.4835 29.5864 23.489 29.4073 23.453C29.2282 23.417 29.0597 23.3403 28.9149 23.2288C28.7701 23.1174 28.6528 22.9742 28.5721 22.8102C28.4914 22.6463 28.4494 22.466 28.4494 22.2833C28.4494 22.1005 28.4914 21.9202 28.5721 21.7563C28.6528 21.5923 28.7701 21.4491 28.9149 21.3377C29.0597 21.2262 29.2282 21.1495 29.4073 21.1135C29.5864 21.0775 29.7715 21.0831 29.9481 21.1298C30.2026 21.1972 30.4276 21.3469 30.5882 21.5555C30.7487 21.7641 30.8358 22.02 30.8358 22.2833C30.8358 22.5465 30.7487 22.8024 30.5882 23.011C30.4276 23.2196 30.2026 23.3693 29.9481 23.4367Z" fill="#000033"/>
<path d="M17.1397 9.19897C11.3328 9.19897 6.63965 13.1763 6.63965 18.0286C6.63965 20.6536 7.99193 23.0399 10.2192 24.6308C10.4578 24.7899 10.6169 25.0286 10.5374 25.4263L9.98057 27.3354C9.90102 27.7331 10.2192 27.8922 10.4578 27.8127L12.8442 26.4604C13.0829 26.3013 13.401 26.2218 13.7192 26.3013C15.7874 26.9377 17.5374 26.7786 17.7761 26.7786C15.867 20.0967 22.4692 16.2785 27.5602 16.5967C26.7647 12.4604 22.3897 9.19897 17.1397 9.19897ZM13.6397 16.5967C13.4292 16.6474 13.2099 16.6497 12.9984 16.6034C12.7868 16.5571 12.5886 16.4634 12.4185 16.3294C12.2484 16.1954 12.1109 16.0246 12.0164 15.8297C11.9218 15.6349 11.8727 15.4212 11.8727 15.2047C11.8727 14.9881 11.9218 14.7744 12.0164 14.5796C12.1109 14.3848 12.2484 14.214 12.4185 14.08C12.5886 13.946 12.7868 13.8523 12.9984 13.806C13.2099 13.7597 13.4292 13.7619 13.6397 13.8126C13.9522 13.8879 14.2303 14.0661 14.4293 14.3186C14.6282 14.5711 14.7364 14.8832 14.7364 15.2047C14.7364 15.5261 14.6282 15.8382 14.4293 16.0908C14.2303 16.3433 13.9522 16.5215 13.6397 16.5967ZM20.7192 16.5967C20.5087 16.6474 20.2894 16.6497 20.0779 16.6034C19.8664 16.5571 19.6681 16.4634 19.498 16.3294C19.3279 16.1954 19.1905 16.0246 19.0959 15.8297C19.0014 15.6349 18.9523 15.4212 18.9523 15.2047C18.9523 14.9881 19.0014 14.7744 19.0959 14.5796C19.1905 14.3848 19.3279 14.214 19.498 14.08C19.6681 13.946 19.8664 13.8523 20.0779 13.806C20.2894 13.7597 20.5087 13.7619 20.7192 13.8126C21.0318 13.8879 21.3099 14.0661 21.5088 14.3186C21.7078 14.5711 21.8159 14.8832 21.8159 15.2047C21.8159 15.5261 21.7078 15.8382 21.5088 16.0908C21.3099 16.3433 21.0318 16.5215 20.7192 16.5967Z" fill="#000033"/>
</svg>
